X: 2022
T: Cook In The Kitchen, The
M: 6/8
L: 1/8
R: jig
K: Gmaj
|: E | DGG GAG | =FDE ~F2E | DGG GFG | A2 d cAF |
|DGG GAG | =FDE F2 d | cAG FGA | BGF G2 :|
|: A | ~B3 BAG | ~A3 AGF | ~G3 GFG | A2 d cAG |
|~B3 BAG | ~A3 A2 d | cAG FGA | BGF G2 :|
|: B | d2 e f2 g | a2 g fed | cAG FGA | BdB cAF |
|d2 e f2 g | a2 g fed | cAG FGA | BGF G2 :|
